icons/editor/subscript.svg

<svg width="32" height="32" viewBox="0 0 32 32" fill="none" xmlns="http://www.w3.org/2000/svg">
<path fill-rule="evenodd" clip-rule="evenodd" d="M22 8H15V26H13V8H6V6H22V8ZM20 16V18H24V20H21.5C20.6716 20 20 20.6716 20 21.5V25V26H21H26V24H22V22H24.5C25.3284 22 26 21.3284 26 20.5V17.5C26 16.6716 25.3284 16 24.5 16H20Z" fill="black"/>
</svg>

<svg width="32" height="32" viewBox="0 0 32 32" xmlns="http://www.w3.org/2000/svg">
    <path fill-rule="evenodd" d="M22 8h-7v18h-2V8H6V6h16v2zm-2 8v2h4v2h-2.5a1.5 1.5 0 00-1.5 1.5V26h6v-2h-4v-2h2.5a1.5 1.5 0 001.5-1.5v-3a1.5 1.5 0 00-1.5-1.5H20z"/>
</svg>
